X:1
T:Rejoice in the Lord alway
T:Anon., 16th century
T:Philippians 4:4-7
T:Rejoice in the Lord alway
C:Anon., 16th century
Z:Philippians 4:4-7
%%score [ 1 2 3 4 ]
L:1/8
Q:1/4=120
M:2/2
K:Bb
V:1 treble nm="Soprano"
V:2 treble nm="Alto"
V:3 treble-8 nm="Tenor"
V:4 bass nm="Bass"
V:1
 F4 B4 | G2 G2 c4- | c2 c2 A4 | z2 AA d4 | c2 B4 A2 | B4 z4 | z8 | z8 | z8 | z8 | F4 B4 | %11
w: Re- joice|in the Lord|* al- way,|and a- gain|I say, re-|joice,|||||Re- joice|
 G2 G2 c4- | c2 c2 A4 | z2 AA d4 | c2 B4 A2 | B4 z4 | B4 e4 | c2 c2 f4- | f2 f2 d4 | z2 dd e3 d | %20
w: in the Lord|* al- way|and a- gain|I say, re-|joice,|re- joice|in the Lord|* al- way,|and a- gain I|
 c2 B2 A4 | z8 | z2 cd e4 | d2 c2- c(B B2- | B2 A2) B4 || z4 F2 F2 | B4 A2 G2 | ^F6 A2 | %28
w: say, re- joice,||and a- gain|I say, * re *|* * joice.|Let your|soft- ness be|known un-|
 G2 G2 ^F4 | A2 A2 d4 | c2 B2 A4- | A2 c2 B2 G2 | A4 z4 | z8 | B4 e4- | e2 d2 c2 B2 | A4 A4 | B8 | %38
w: to all men,|let your soft-|­ness be known|* un- to all|men:||the Lord|* is e'en at|hand, at|hand.|
 z4 A4 | B6 (A2 | G2) d2 (cBAG) | ^F4 z2 G2 | A4 B4 | c2 c2 z2 A2 | c2 B2 B2 A2 | B4 z4 | z8 | %47
w: Be|care- ful|* for no- * * *|thing: but|in all|pray- er and|sup- pli- ca- ti-|on,||
 z4 z2 e2 | e2 d2 c3 B | A4 z4 | z8 | z8 | c4 d3 c | B4 c2 e2 | d2 c4 B2- | B2 c2 A4 | B4 z4 | %57
w: let|your pe- ti- ti-|ons|||be ma- ni-|­fest un- to|God with giv-|* ing of|thanks,|
 z2 f2 (e2 d2) | (c2 B2) A4- | A4 z4 | F2 G2 A2 B2 | c6 B2 | A4 G4 | G6 F2 | F6 (=ED | =E4) F4- | %66
w: with giv- ing|* of thanks.||And the peace of|God, which|pass- eth|all un-|der- stand *|* ing,|
 F4 z4 | z8 | z4 B2 B2 | c2 d2 e4- | e2 d2 c4 | (B2 AG) F4 | z4 B2 c2 | d2 e2 f4- | f2 e2 d4 | %75
w: ||keep your|hearts and minds|* through Christ|Je * * su,|keep your|hearts and minds|* through Christ|
 c4 B4 | B4 A4 | A4 B4 | (B8 | B4) B4 | (B8 | B4) B4- | !fermata!B8 |] %83
w: Je- su,|through Christ|Je- su.|A|* men.|A|* men.||
V:2
 z4 B,4 | E4 C2 C2 | F6 F2 | D4 z2 B,B, | E3 D C2 C2 | B,4 B,4 | E4 C2 C2 | F6 F2 | D2 DD G3 F | %9
w: Re-|joice in the|Lord al-|way, and a-|gain I say, re-|joice, re-|joice in the|Lord al-|way, and a- gain I|
 E2 E2 D4 | D4 G4 | E2 E2 G4 | A4 F4 | F4 F4 | G4 F3 (E | D2) F2 B4 | G4 c4 | z4 A2 B2- | %18
w: say, re- joice,|re- joice|in the Lord|al- way,|and a-|gain I say,|* re- joice,|re- joice,|I say,|
 B2 A2 B4 | z2 FF G3 F | E2 D2 C4 | z8 | z4 z2 GA | B2 A2 G2 E2 | F3 E D4 || z4 D2 D2 | F4 F2 D2 | %27
w: * re- joice,|and a- gain I|say, re- joice,||and a-|gain I say, I|say, re- joice.|Let your|soft- ness be|
 D6 D2 | D2 C2 D4 | =F2 F2 F4 | F2 F2 F4- | F2 F2 F2 =E2 | F4 z4 | z4 F4 | B6 A2 | G2 F2 E4 | %36
w: known un-|to all men,|let your soft-|­ness be known|* un- to all|men:|the|Lord is|e'en at hand,|
 z2 C2 F4- | F2 E2 D2 C2 | B,4 F4 | F6 E2 | D6 C2 | D4 z2 D2 | F4 F4 | G2 G2 z2 F2 | G3 F E2 C2 | %45
w: the Lord|* is e'en at|hand. Be|care- ful|for no-|thing: but|in all|pray- er and|sup- pli- ca- ti-|
 F4 z4 | z2 B2 B2 A2 | G3 F E2 C2 | G2 F2 F2 =E2 | F4 z4 | z8 | z8 | z4 F4 | G3 F E4 | %54
w: on,|let your pe-|ti- ti- ons, let|your pe- ti- ti-|ons|||be|ma- ni- fest|
 F2 A2 G2 F2 | E2 E2 C4 | F4 z2 B2 | A4 (G2 F2) | =E4 F4- | F4 C2 C2 | D2 E2 F4- | F2 E2 D4 | %62
w: un- to God, with|giv- ing of|thanks, with|giv- ing of|* thanks.|* And the|peace of God|* which pass-|
 C2 D2 E4- | E2 D2 C4 | D4 C4 | C4 D4 | C4 z4 | z4 F2 F2 | G2 A2 B2 F2 | G3 (F ED C2) | F8 | z8 | %72
w: eth all un|* der- stand-|ing, un-|der- stand-|ing,|keep your|hearts and minds through|Christ Je * * *|su,||
 F2 F2 G2 A2 | B6 A2 | G4 F4 | F6 (=ED | =E4) F4- | F4 z2 (D2 | F3 E DE F2 | G4) F2 (D2 | %80
w: keep your hearts and|minds through|Christ, through|Christ Je *|* su.|* A||* men. A|
 E2 F2 G3 F | ED E4 DC) | !fermata!D8 |] %83
w: ||men.|
V:3
 z8 | z8 | z8 | z8 | z4 F4 | B4 G2 G2 | c6 c2 | A4 z2 AA | d4 c2 B2- | B2 A2 B4 | B4 d4 | %11
w: ||||Re-|joice in the|Lord al-|way, and a-|gain I say,|* re- joice,|re- joice|
 c2 c2 e4 | f4 c4- | c4 z2 dd | e3 d c2 c2 | B4 F2 B2- | B2 G2 G2 c2- | c2 c2 d4 | c2 c2 B4 | %19
w: in the Lord|al- way,|* and a-|gain I say, re-|joice, re- joice|* in the Lord|* al- way,|in the Lord|
 B4 B4 | z4 z2 cd | e4 d2 c2 | B2 f2 e2 e2 | f2 f2 e(dcB | c4) B4 || z4 A2 A2 | d4 c2 B2 | A6 =F2 | %28
w: al- way,|and a-|gain I say,|re- joice, and a-|gain I say, re * *|* joice.|Let your|soft- ness be|known un-|
 G2 G2 A4 | F2 F2 B4 | A2 d2 c4- | c2 A2 B2 B2 | c4 c4 | f6 e2 | d2 c2 B2 B2 | e6 d2 | c4 c4 | B8 | %38
w: to all men,|let your soft-|­ness be known|* un- to all|men: the|Lord is|e'en at hand, the|Lord is|e'en at|hand.|
 z4 c4 | d6 c2 | B4 G4 | A4 z2 B2 | c4 d4 | e2 e2 z2 c2 | c2 d2 e2 e2 | d4 z2 f2 | f2 e2 d2 c2 | %47
w: Be|care- ful|for no-|thing: but|in all|pray- er and|sup- pli- ca- ti-|on, let|your pe- ti- ti-|
 G2 B2 B2 A2 | B3 B F2 c2 | d3 c B4 | c2 e2 d2 c2 | B2 A2 G2 B2- | B2 A2 B4 | G4 G4 | B2 c4 d2 | %55
w: ons, let your pe-|ti- ti- ons be|ma- ni- fest|un- to God, be|ma- ni- fest un-|* to God,|un- to|God with giv|
 g2 g2 f4 | d4 d4 | c4 c4 | c4 c4- | c4 z4 | z8 | z4 F2 G2 | A2 B2 c4- | c2 B2 A2 A2 | B4 G4- | %65
w: * ing of|thanks, with|giv- ing|of thanks.|||And the|peace of God,|* which pass- eth|all un|
 G2 G2 B4 | A4 B2 c2 | d2 e2 f4 | e2 d2 d4 | c2 B4 A2 | B4 A4 | B2 c2 d2 e2 | f6 e2 | d6 c2 | %74
w: * der- stand-|ing, keep your|hearts and minds|through Christ Je-|su, through Christ|Je- su,|keep your hearts and|minds, your|hearts and|
 c4 F2 B2- | B2 A2 B4 | B4 c4 | c4 B4- | B2 (F2 B3 A | GABc de f2) | e2 (d2- dcBA | GF G4 F2) | %82
w: minds through Christ|* Je- su,|through Christ|Je- su.|* A * *||men. A * * * *||
 !fermata!F8 |] %83
w: men.|
V:4
 z8 | z8 | z8 | z8 | z8 | B,,4 E,4 | C,2 C,2 F,4- | F,2 F,2 D,4 | z2 B,,B,, E,3 D, | C,2 C,2 B,,4 | %10
w: |||||Re- joice|in the Lord|* al- way,|and a- gain I|say, re- joice,|
 B,4 G,4 | C2 C2 C4 | F,4 F,4 | z2 F,F, B,4 | E,4 F,2 F,2 | B,,4 B,,4 | E,4 C,2 C,2 | F,6 (D,E,) | %18
w: re- joice|in the Lord|al- way,|and a- gain|I say, re-|joice, re-|joice in the|Lord al *|
 F,4 B,,4 | z2 B,,B,, E,3 E, | E,2 E,2 F,4 | z2 G,A, B,2 A,2 | G,2 F,2 C2 C2 | B,2 F,2 G,4 | %24
w: * way,|and a- gain I|say, re- joice,|and a- gain I|say, re- joice, a-|gain I say,|
 F,4 B,,4 || D,6 D,2 | D,4 F,2 G,2 | D,6 =F,2 | E,2 E,2 D,4 | D,2 D,2 B,,4 | F,2 D,2 F,4- | %31
w: re- joice.|Let your|soft- ness be|known un-|to all men,|let your soft-|­ness be known|
 F,2 F,2 G,2 G,2 | F,4 z4 | F,4 B,4- | B,2 A,2 G,2 F,2 | E,4 E,4 | F,6 E,2 | D,2 C,2 B,,4 | %38
w: * un- to all|men,|the Lord|* is e'en at|hand, the|Lord is|e'en at hand.|
 z4 F,4 | D,4 F,4 | G,4 E,4 | D,4 z2 G,2 | F,4 D,4 | C,2 C,2 z2 F,2 | E,2 D,2 C,2 C,2 | %45
w: Be|care- ful|for no-|thing: but|in all|pray- er and|sup- pli- ca- ti-|
 B,,2 B,2 B,2 A,2 | G,3 G, F,2 F,2 | E,2 D,2 C,3 C, | B,,4 z4 | F,4 G,3 F, | E,4 F,2 A,2 | %51
w: on, let your pe-|ti- ti- ons, let|your pe- ti- ti-|ons|be ma- ni-|fest un- to|
 G,2 F,2 E,2 D,2 | C,4 B,,2 B,,2 | E,3 D, C,4 | B,,2 F,2 E,2 D,2 | C,2 C,2 F,4 | B,,4 B,,4 | %57
w: God with giv- ing|of thanks, be|ma- ni- fest|un- to God with|gi- ving of|thanks, with|
 F,4 C,4 | C,4 F,4- | F,4 z4 | z8 | C,2 C,2 D,2 E,2 | F,4 C,4 | (E,4 F,2) F,2 | B,,4 C,4- | %65
w: giv- ing|of thanks.|||And the peace of|God, which|pass * eth|all un|
 C,2 C,2 B,,2 B,,2 | F,2 F,2 G,2 A,2 | B,6 A,2 | G,2 F,2 G,2 D,2 | E,2 (D,2 C,4) | B,,4 F,2 F,2 | %71
w: * der- stand- ing,|keep your hearts and|minds, your|hearts and minds through|Christ Je *|su, keep your|
 G,2 A,2 B,4- | B,2 A,2 G,4 | (G,4 F,4) | C,4 D,2 B,,2 | F,4 G,4 | G,4 F,4 | F,4 B,,4- | %78
w: hearts and minds|* through Christ|Je *|su, through Christ|Je- su,|through Christ|Je- su.|
 B,,4 z2 (B,,2 | E,F,G,A, B,3 A, | G,2 F,2 E,2) (D,2 | E,4) B,,4- | !fermata!B,,8 |] %83
w: * A||* * men. A|* men.||

